Yaru++/actions/16/transform-shear-right.svg

<svg viewBox="0 0 24 24" xmlns="http://www.w3.org/2000/svg"><path d="m7 4v5h1v-4h11v8h-2v1h2 1v-1-9h-1-11zm-2 6-.9003906 9-.0996094 1h1 9 1l.900391-9 .099609-1h-1-9zm.9003906 1h9.0000004l-.800782 8h-8.9999996z" fill="#808080"/></svg>

<svg xmlns="http://www.w3.org/2000/svg" viewBox="0 0 24 24">
 <defs>
  <style id="current-color-scheme" type="text/css">
   .ColorScheme-Text { color:#808080; }
  </style>
 </defs>
 <path fill="#808080" class="ColorScheme-Text" d="M 7 4 L 7 9 L 8 9 L 8 5 L 19 5 L 19 13 L 17 13 L 17 14 L 19 14 L 20 14 L 20 13 L 20 4 L 19 4 L 8 4 L 7 4 z M 5 10 L 4.0996094 19 L 4 20 L 5 20 L 14 20 L 15 20 L 15.900391 11 L 16 10 L 15 10 L 6 10 L 5 10 z M 5.9003906 11 L 14.900391 11 L 14.099609 19 L 5.0996094 19 L 5.9003906 11 z"/>
</svg>
